X: 268
T:Lasses of Campbell Street
C: Dan R. MacDonald
M:2/4
R:March
L:1/16
Z:Alf Warnock - alf0@rogers.com
K:D
f>e|"D"d2A2 "Bm"B>AF<D|"D"B,<A,B,<C D2F>G|"D"A>DF<A d>FA<d|"A7"f2e2 e2a>g|
"D"f2d2 "Bm"B>AF<D|"D"B,<A,B,<C D2F>G|A>DF<A "G"d>AB>G|"D"F2D2 D2 :|
F>G|\
"D"A>DF<A d>FA<d|f>ed<f a2g<a|"G"b>egdf<a|"Em"b2e2 "A7"e2
[1 F>G|\
"D"A>DF<A d>FA<d|f>ed>f a2g<f|"G"g>ab<g "A7"e>fg>e|"D"f2d2 d2:|
[2 f>e|\
"D"d>DF<D A>DF<D|A,>DF<A d>FA<d|"G"f<ae>f "A7"d>AB>G|"D"F2D2 D2|]
